X: 16169
T: Green Mountain Petronella
R: barndance
M: 4/4
K: Amajor
|:A/G/F|E2 A2 AGAF|E2 c2 cABc|d2 dc Bcde|f2 e2 e4|
E2 A2 AGAF|E2 c2 cABc|dedc BAGA|B2 A2 A2:|
|:ce|a2 a2 g2 g2|fgaf e4|fefg afed|c2 B2 B2 c/d/e|
a2 a2 g2 g2|fgaf e4|fefg afed|c2 A2 A2:|
P: notated swung
|:(3AGF|E2 A2 A>GA>F|E2 c2 c>AB>c|d2 d>c B>cd>e|f2 e2 e4|
E2 A2 A>GA>F|E2 c2 c>AB>c|d>ed>c B>AG>A|B2 A2 A2:|
|:c>e|a2 (3aba g2 (3gbg|f>ga>f e4|f>ef>g a>fe>d|c2 B2 B2 (3cde|
a2 a2 g2 g2|f>ga>f e2 c>e|(3fgf f>g a>fe>d|c2 A2 A2:|

